X: 26341
T: Meriweather
R: reel
M: 4/4
K: Gmajor
D GA|:B2 BA GAGF|E2 A2 A2 E2|DEGA Bdef|(3gag fg edBA|
B2 BA GAGF|E2 A2 A2 GE|DEGA B d2 e|1 dB A2 GDGA:|2
dB A2 G2 Bd|:g g2 a ge d2|gfga g4|e2 a2 a2 a2|(3efg ab a2 g2|
b2 ba g2 d e-|e d ef g2 de-|e d ef ge d2|1 BG AB G2 d2:|2
BG AB G4||

